X:235
T: Mountcollins Jig
C: Eamon Flynn
Z: B.Black
R: jig
M: 6/8
L: 1/8
K: D
FEF DFA | BAF Ade | fed BAF | B3 BAB |
FEF DFA | BAF Ade | fed BAF | E3 EDE |
FEF DFA | BAF Ade | fed BAF | B3 Bde |
fed edc | dcB cBA | BAF DFA | B3 B2 A ||
fef Adf | afd ede | f/2g/2af Adf | g3 gfe |
fef Adf | baf gfe | fdB AFA | B3 B2 A |
fef Adf | afd ede | f/2g/2af Adf | g3 g2 e |
agf gfe | fed edc | GAF DFA | B3 BAB ||
